X: 6794
T: Charity's
R: jig
M: 6/8
K: Dmajor
|:FED EFD|FED G2D|ECF ECF|EDC DEF|
Bcd cAF|FED G2D|ECF FEC|EDC D2F:|
|:Bcd cAF|FED GEd|gfg gfg|afe dce|
feD fed|efd e2A|Bcd cAF|1 EDC D2F:|2 EDC D3||

